static/logos/loom-glyph-color.svg

<svg width="50" height="50" viewBox="0 0 50 50" fill="none" xmlns="http://www.w3.org/2000/svg">
<g clip-path="url(#clip0_1_2107)">
<path d="M50.0287 22.3834H34.7884L47.9866 14.7667L45.3692 10.2333L32.1694 17.85L39.7879 4.65834L35.2535 2.04166L27.6334 15.23V0H22.3953V15.2317L14.7752 2.04166L10.2391 4.65834L17.8576 17.8467L4.66112 10.2333L2.04216 14.7667L15.2403 22.3834H0V27.6183H15.2387L2.04216 35.2351L4.65946 39.7683L17.8593 32.1517L10.2391 45.3433L14.7736 47.9601L22.3953 34.77V50H27.6334V34.4433L35.3935 47.8767L39.6463 45.4233L31.8843 31.9868L45.3659 39.7666L47.9849 35.2334L34.7884 27.6166H50.027V22.3834H50.0287ZM25.0144 32.1166C24.0793 32.1168 23.1534 31.9328 22.2896 31.5752C21.4257 31.2175 20.6407 30.6933 19.9795 30.0323C19.3183 29.3715 18.7937 28.5868 18.4358 27.7231C18.0779 26.8595 17.8936 25.934 17.8935 24.9993C17.8933 24.0644 18.0774 23.1386 18.4351 22.275C18.7929 21.4114 19.3172 20.6265 19.9784 19.9655C20.6394 19.3045 21.4241 18.78 22.2881 18.4222C23.1519 18.0643 24.0776 17.8802 25.0127 17.88C26.9009 17.8798 28.7121 18.6295 30.0476 19.9644C31.383 21.2993 32.1334 23.1097 32.1336 24.9976C32.1338 26.8853 31.384 28.6961 30.0487 30.0312C28.7136 31.3664 26.9026 32.1164 25.0144 32.1166Z" fill="#5753F3"/>
</g>
<defs>
<clipPath id="clip0_1_2107">
<rect width="50" height="50" fill="white"/>
</clipPath>
</defs>
</svg>

<svg xmlns="http://www.w3.org/2000/svg" width="64" height="64" fill="none" viewBox="0 0 50 50"><g clip-path="url(#a)"><path fill="#5753F3" d="M50.029 22.383h-15.24l13.198-7.616-2.618-4.534-13.2 7.617 7.619-13.192-4.534-2.616-7.62 13.188V0h-5.239v15.232l-7.62-13.19-4.536 2.616 7.619 13.189L4.66 10.233l-2.619 4.534 13.198 7.616H0v5.235h15.239L2.042 35.235l2.617 4.533 13.2-7.616-7.62 13.191 4.535 2.617 7.621-13.19V50h5.238V34.443l7.76 13.434 4.253-2.454-7.762-13.436 13.482 7.78 2.619-4.534-13.197-7.616h15.239v-5.234h.002Zm-25.015 9.734a7.12 7.12 0 0 1-5.036-12.151 7.118 7.118 0 0 1 5.035-2.086 7.121 7.121 0 0 1 7.12 7.118 7.117 7.117 0 0 1-7.119 7.119Z"/></g><defs><clipPath id="a"><path fill="#fff" d="M0 0h50v50H0z"/></clipPath></defs></svg>
